<?xml version="1.0" encoding="UTF-8"?>
<map version="1.10" tiledversion="1.12.2" orientation="orthogonal" renderorder="right-down" width="30" height="17" tilewidth="16" tileheight="16" infinite="0" nextlayerid="3" nextobjectid="1">
 <tileset firstgid="1" source="Fence.tsx"/>
 <tileset firstgid="856" source="Grass.tsx"/>
 <tileset firstgid="1081" source="Trees with Shadow.tsx"/>
 <layer id="1" name="Tile Layer 1" width="30" height="17">
  <data encoding="csv">
856,857,858,859,860,861,856,857,858,859,856,857,858,859,860,861,856,857,858,859,856,857,858,859,856,857,858,859,860,861,
871,872,873,874,875,876,871,872,873,874,871,872,873,874,875,876,871,872,873,874,871,872,873,874,871,872,873,874,875,876,
886,887,888,889,892,893,894,895,896,889,886,887,888,889,890,891,886,887,888,889,886,871,872,873,893,894,895,896,890,891,
901,891,892,893,894,908,909,910,911,904,901,902,903,904,905,906,901,902,903,904,901,886,887,888,892,893,894,895,896,906,
916,906,907,908,909,923,924,925,926,919,916,917,918,919,920,921,916,917,918,919,916,901,902,903,907,908,909,910,911,921,
931,921,922,923,924,938,939,940,891,892,893,894,933,934,935,892,893,894,895,896,931,932,937,937,922,923,924,925,926,936,
856,936,937,938,939,894,895,896,906,907,908,909,856,857,858,907,908,909,910,911,858,859,860,856,937,938,939,940,941,861,
871,872,873,907,908,909,910,911,921,922,923,924,871,872,873,922,923,924,925,926,873,874,875,871,871,872,873,874,875,876,
886,887,888,922,923,924,925,926,936,937,938,939,886,887,888,937,938,939,940,941,888,889,890,886,886,887,888,889,890,891,
901,902,903,937,938,939,940,941,903,904,905,906,901,902,903,904,905,906,901,902,903,904,905,901,901,902,903,904,905,906,
916,891,892,893,894,892,893,894,895,896,920,921,916,917,918,919,920,921,916,917,918,919,920,916,916,917,918,919,920,921,
856,906,907,908,909,907,908,909,910,911,858,859,860,861,857,858,859,860,861,857,892,893,894,895,896,857,858,859,860,861,
871,921,922,923,924,922,923,924,925,926,873,874,875,876,872,873,874,875,876,872,907,908,909,910,911,872,873,874,875,876,
886,936,937,938,939,937,938,939,940,941,888,889,890,891,887,888,889,890,891,887,922,923,924,925,926,887,888,889,890,891,
901,902,903,904,905,906,901,902,901,902,903,904,905,906,902,903,904,905,906,902,937,938,939,940,941,902,903,904,905,906,
916,917,918,919,920,921,916,917,916,917,918,919,920,921,917,918,919,920,921,917,918,919,920,921,916,917,918,919,920,921,
931,932,933,934,935,936,931,932,931,932,933,934,935,936,932,933,934,935,936,932,933,934,935,936,931,932,933,934,935,936
</data>
 </layer>
 <layer id="2" name="Tile Layer 2" width="30" height="17">
  <data encoding="csv">
1,8,8,8,8,8,8,8,8,8,8,8,8,8,8,8,8,8,8,8,8,8,8,8,8,8,8,8,8,3,
4,1560,1561,1560,1561,1560,1561,1560,1561,1560,1561,1560,1561,1560,1561,1560,1561,1560,1561,1560,1561,1560,1561,1560,1561,1560,1561,1560,1561,6,
4,1610,1611,1610,1611,1610,1611,1610,1611,1610,1611,1610,1611,1610,1611,1610,1611,1610,1611,1610,1611,1610,1611,1610,1611,1610,1611,1610,1611,6,
4,1542,1543,0,0,0,0,0,0,0,0,0,0,0,0,0,0,0,0,0,0,0,0,0,0,0,0,0,0,6,
4,1592,1593,0,0,0,0,0,0,0,0,0,0,0,0,0,0,0,0,0,0,0,0,0,0,0,0,0,0,6,
4,1642,1643,0,0,0,0,0,0,0,0,0,0,0,0,0,0,0,0,0,0,0,0,0,0,0,0,0,0,6,
0,0,0,0,0,0,0,0,0,0,0,0,0,0,0,0,0,0,0,0,0,0,0,0,0,1085,1086,1087,1088,6,
0,0,0,0,0,0,0,0,0,0,0,0,0,0,0,0,0,0,0,0,0,0,0,0,0,1135,1136,1137,1138,6,
0,0,0,0,0,0,0,0,0,0,0,0,0,0,0,0,0,0,0,0,0,0,0,0,0,1185,1186,1187,1188,6,
0,0,0,0,0,0,0,0,0,0,0,0,0,0,0,0,0,0,0,0,0,0,0,0,0,1235,1236,1237,1238,6,
0,0,0,0,0,0,0,0,0,0,0,0,0,0,0,0,0,0,0,0,0,0,0,0,0,1285,1286,1287,1288,6,
4,1542,1543,0,0,0,0,0,0,0,0,0,0,0,0,0,0,0,0,0,0,0,0,0,0,0,0,0,0,6,
4,1592,1593,0,0,0,0,0,0,0,0,0,0,0,0,0,0,0,0,0,0,0,0,0,0,0,0,0,0,6,
4,1642,1643,0,0,0,0,0,0,0,0,0,0,0,0,0,0,0,0,0,0,0,0,0,0,0,0,0,0,6,
4,1560,1561,1560,1561,1560,1561,1560,1561,1560,1561,1560,1561,1560,1561,1560,1561,1560,1561,1560,1561,1560,1561,1560,1561,1560,1561,1560,1561,6,
4,1610,1611,1610,1611,1610,1611,1610,1611,1610,1611,1610,1611,1610,1611,1610,1611,1610,1611,1610,1611,1610,1611,1610,1611,1610,1611,1610,1611,6,
7,8,8,8,8,8,8,8,8,8,8,8,8,8,8,8,8,8,8,8,8,8,8,8,8,8,8,8,8,9
</data>
 </layer>
</map>
